X: 11791
T: Elk River Blues
R: barndance
M: 4/4
K: Gmajor
z2 G2 B2 d2|"C" e4 e4|z2 ef e2 d2|[M: 2/4 ] BA B2|[M: 4/4 ] "G" d4 d4|
z2 AA B2 d2|"C" e4 e4|z2 ef e2 d2|[M:2/4 ] BA G2|[M:4/4] "D" A4 A4|
z2 DD E2 G2|"Am" A4 A4|z2 AB A2 G2|[M:2/4 ] ED E2|[M: 4/4] "G" G4 G4|
z2 DD E2 G2|"Am" A4 A4|z2 AB A2 G2|[M:2/4 ] ED E2|[M: 4/4] "G" G4 G4|

